X: 23
T:The Sailor's Wife
M:6/8
L:1/8
S:AABB
R:Jig
K:Dm
||:d|"Dm"D>EF FED|d2 e f2 g|"Am"a>gf "Dm"fed|"C"c2 A GEC|!
D>EF FED|d2 e f2 g|"Dm"agf "A7"ed^c|"Dm"d3 d2:||!
"F"f>ga f>ga|f>ga agf|"C"ecg ecg|"C"e>cg gfe|!
"Dm"f>ga a>gf|"Am7"e>fg g>fe|"Dm"def "A7"ed^c|"Dm"d3 d3:||
